X:263(G)
T:Rory O More (G) (with Coda)
O:No 263(G) William Clarke of Feltwell
M:6/8
L:1/8
N:In m.s., pause marks over E in bar 6, 2nd D in bar 12 and E in bar 22.
N: The word Syne is written over bar 25
K:G
e|dGG AGG|dGG Gge|dcB BAG|FAAA2d|dGG {B}AGG|dGG !fermata!edc|Bcd def|gGG Gz g|gfe eBB|cBA Gz F|EFG GAB|Bed !fermata!dff|gfe dBB|cBA GGF|EFG GAB|Bed dz e|dGG AGG|dGG Gz e|dGG BAG|FAA ABc|dGG AGG|dGG !fermata!edc|Bcd egf|gGGG2||d|dBd cAc|BdB gfe|ddd def|gGGG2|]

